src/assets/desktop/motiva.svg

<svg width="77" height="24" viewBox="0 0 77 24" fill="none" xmlns="http://www.w3.org/2000/svg">
<path fill-rule="evenodd" clip-rule="evenodd" d="M0.0180456 5.96147C0.0185131 11.8731 0.0245057 12.4484 0.0923151 13.0911C0.373816 15.7592 1.48393 18.1549 3.34192 20.1039C5.58065 22.4524 8.78246 23.9032 11.9124 23.9873L12.3852 24V21.1055L12.5605 21.2555C12.9813 21.6154 13.6539 22.0764 14.216 22.3901C15.9948 23.3828 18.0611 23.9385 20.1536 23.987L20.7076 23.9999L20.7104 17.7699C20.7131 11.5853 20.7069 10.9237 20.6401 10.2539C20.1768 5.60944 17.3366 2.2887 12.4931 0.728589C11.2307 0.321956 9.79263 0.0503795 8.7036 0.0129661L8.32641 0V2.89625L8.17234 2.76198C6.75359 1.52561 4.66421 0.618105 2.3126 0.216889C1.60697 0.0964927 0.724402 0.00648303 0.249652 0.00648303H0.0175781L0.0180456 5.96147ZM23.6269 7.71293L23.3842 11.6237C23.2507 13.7746 23.1311 15.765 23.1185 16.0468C23.1059 16.3286 23.0716 16.7615 23.0422 17.0088C22.9838 17.501 22.8665 18.4518 22.8469 18.5929L22.8345 18.6818H24.1578L24.1575 18.5616C24.1574 18.4954 24.1679 17.839 24.1809 17.1029C24.2043 15.7713 24.2058 15.7423 24.4667 11.4385C24.6109 9.05921 24.7319 7.10963 24.7356 7.10612C24.7392 7.10261 25.7471 9.35985 26.9753 12.1222L29.2083 17.1447H30.3297L32.5005 12.1164C33.6945 9.35086 34.6797 7.075 34.69 7.05894C34.7121 7.02443 35.2579 15.6041 35.3036 16.7055C35.3203 17.1081 35.3402 17.7175 35.3478 18.0597L35.3615 18.6818H37.3542L37.354 18.6348C37.3539 18.6089 37.3397 18.4701 37.3226 18.3263C37.2805 17.9745 37.1975 17.115 37.1316 16.35C37.0802 15.7531 36.618 8.21717 36.5666 7.13783C36.5531 6.85602 36.536 6.21608 36.5285 5.71574L36.5148 4.80602L34.496 4.79521L32.4778 9.50604C31.3677 12.097 30.3922 14.3737 30.3098 14.5653L30.1601 14.9137L25.6772 4.79611L23.6548 4.79557L23.6269 7.71293ZM54.8962 5.52934C54.6107 5.56259 54.3754 5.66961 54.2296 5.83258C53.9224 6.17608 53.9735 6.96897 54.3196 7.22825C54.5198 7.37828 54.7251 7.42988 55.1236 7.43029C55.5751 7.43077 55.779 7.36973 55.9771 7.17476C56.1912 6.96406 56.2779 6.56349 56.1938 6.17309C56.0801 5.64545 55.6656 5.43979 54.8962 5.52934ZM49.3183 5.73142C49.3185 5.76304 49.3375 6.17008 49.3607 6.63591C49.3846 7.11825 49.4028 7.78676 49.4029 8.1887L49.403 8.89452H47.7455V9.6683H49.402L49.409 13.3647C49.4154 16.7207 49.4193 17.0767 49.4516 17.2306C49.6107 17.9901 50.0044 18.4577 50.6625 18.6691C50.9401 18.7583 51.2052 18.7916 51.6343 18.7913C52.2082 18.7908 52.5359 18.734 53.0103 18.5527L53.2281 18.4695V17.9137C53.2281 17.3676 53.2274 17.3585 53.1875 17.394C53.1521 17.4255 53.1459 17.426 53.1396 17.3981C53.1343 17.3742 53.0973 17.3929 52.9955 17.4709C52.8118 17.6118 52.6218 17.7139 52.4014 17.7903C52.2407 17.846 52.1905 17.8537 51.9849 17.8538C51.7925 17.8539 51.73 17.8457 51.6312 17.8071C51.3127 17.6827 51.1692 17.4733 51.0676 16.9843C51.0345 16.825 51.0307 16.5041 51.0241 13.2392L51.0168 9.6683H53.0793V8.89452H51.0181V5.67391H49.318L49.3183 5.73142ZM75.4239 7.48935C75.2281 7.54659 75.0764 7.63689 74.9215 7.78845C74.3651 8.33303 74.519 9.25673 75.224 9.60404C75.6042 9.79129 76.0993 9.76716 76.4525 9.54414C76.6862 9.39652 76.8899 9.11438 76.9531 8.85075C77.0868 8.29262 76.7622 7.70773 76.2102 7.51211C76.0302 7.44832 75.6063 7.43607 75.4239 7.48935ZM75.5365 7.68012C75.3688 7.73291 75.248 7.80679 75.1348 7.92583C74.9464 8.12406 74.8608 8.3334 74.8608 8.59573C74.8608 9.04988 75.1879 9.43265 75.655 9.52496C76.0743 9.60784 76.5566 9.27549 76.677 8.82059C76.8578 8.13751 76.1936 7.47335 75.5365 7.68012ZM75.307 9.25004H75.5833V8.66448H75.6463C75.7035 8.66448 75.7284 8.69179 75.9134 8.95726L76.1175 9.25004H76.4169L76.3796 9.19253C76.359 9.16091 76.2713 9.03282 76.1846 8.90792C76.098 8.78301 76.03 8.67949 76.0336 8.67788C76.2085 8.59904 76.2565 8.56296 76.3005 8.47705C76.3967 8.28923 76.3354 8.04955 76.1699 7.96671C76.099 7.9312 76.0315 7.9239 75.6971 7.91566L75.307 7.90604V9.25004ZM75.5833 8.51982L75.748 8.50566C75.9885 8.485 76.0721 8.43159 76.0721 8.2985C76.0721 8.16539 75.9736 8.10194 75.7402 8.08456L75.5833 8.07287V8.51982ZM68.847 8.70898C68.5429 8.73098 67.8928 8.80311 67.5826 8.84929L67.3488 8.88406L67.3432 9.54805C67.3401 9.91323 67.3454 10.212 67.3549 10.212C67.3644 10.212 67.3837 10.2007 67.3977 10.1869C67.4175 10.1674 67.4232 10.1675 67.4232 10.1872C67.4232 10.2022 67.4903 10.1794 67.5879 10.1312C68.6796 9.59235 69.6782 9.42 70.6214 9.60763C71.3881 9.76013 72.0478 10.181 72.3178 10.6899C72.4533 10.9453 72.4855 11.0836 72.4965 11.4564L72.5064 11.791L71.1708 12.2281C69.7592 12.69 69.4151 12.8187 68.786 13.1201C67.5776 13.6991 66.9445 14.246 66.6346 14.9785C66.4167 15.4936 66.3727 16.1767 66.5191 16.77C66.6772 17.4103 67.0584 17.9386 67.635 18.3164C68.1336 18.643 68.6637 18.7967 69.3782 18.8216C70.4274 18.8583 71.191 18.6167 72.2417 17.9157L72.502 17.7421L72.5021 17.8512C72.5022 18.0202 72.5426 18.3052 72.5937 18.4971L72.6401 18.6714L73.5273 18.6768C74.0153 18.6798 74.4145 18.6779 74.4145 18.6725C74.4145 18.6672 74.3668 18.491 74.3085 18.281C74.2502 18.0711 74.1932 17.8236 74.1818 17.7311C74.1705 17.6386 74.1552 17.5253 74.1478 17.4793C74.1404 17.4333 74.1276 15.937 74.1193 14.1541C74.1043 10.9334 74.1039 10.9116 74.0588 10.7453C73.9523 10.3527 73.7578 10.0206 73.4716 9.74273C72.8738 9.16214 71.927 8.81564 70.6426 8.70733C70.3452 8.68225 69.2018 8.6833 68.847 8.70898ZM42.5392 8.77143C41.1095 8.89573 40.0024 9.67673 39.3461 11.0241C39.0695 11.592 38.8936 12.2756 38.8205 13.0667C38.7927 13.3679 38.7933 14.2566 38.8216 14.562C38.9254 15.6821 39.2295 16.5653 39.772 17.3225C39.9629 17.5888 40.4526 18.0698 40.7011 18.2351C41.3396 18.6595 41.9721 18.8517 42.8364 18.8838C44.4773 18.9446 45.7303 18.272 46.5267 16.9027C47.1162 15.8893 47.3578 14.4662 47.202 12.9239C47.0898 11.8121 46.7145 10.8469 46.1128 10.1222C45.9108 9.87894 45.5322 9.53609 45.2882 9.3755C44.5453 8.88666 43.6009 8.67914 42.5392 8.77143ZM54.1632 8.90998C54.1632 8.91874 54.1987 9.14234 54.242 9.40689L54.3207 9.88789L54.3283 12.9621C54.3371 16.4894 54.3193 17.1787 54.1957 18.1067C54.1788 18.2332 54.1586 18.4144 54.1507 18.5093L54.1364 18.6818H56.0331L56.0319 18.4047C56.0312 18.2523 56.0204 17.9959 56.0078 17.8348C55.9933 17.6482 55.9803 15.9766 55.9719 13.2235L55.9587 8.90498L55.0609 8.89952C54.5671 8.89653 54.1631 8.90123 54.1632 8.90998ZM57.3081 8.91564C57.3081 8.94241 57.7085 10.2495 57.9775 11.1008C58.7621 13.5845 59.5179 15.5682 60.7202 18.3002L60.8881 18.6818H62.368L62.4186 18.5692C62.4464 18.5073 62.679 17.9403 62.9355 17.3092C63.6181 15.6292 63.8953 14.8895 64.4509 13.2653C64.9521 11.8003 65.123 11.2418 65.5735 9.59511C65.6679 9.25004 65.7504 8.95126 65.7569 8.93112C65.7678 8.89686 65.7305 8.89452 65.173 8.89452H64.5773L64.5564 8.97294C64.5448 9.01609 64.4959 9.20665 64.4477 9.39643C64.2091 10.336 63.893 11.4459 63.5869 12.4184C63.162 13.7688 62.7488 14.8736 62.0674 16.4814C61.8494 16.996 61.8232 17.0472 61.8007 17.0042C61.7214 16.8529 61.0639 15.0966 60.7309 14.1465C60.5373 13.5942 60.0367 12.0591 59.7548 11.1531C59.6722 10.8876 59.1356 8.9366 59.1356 8.90165C59.1356 8.89774 58.7244 8.89452 58.2219 8.89452C57.6207 8.89452 57.3081 8.90176 57.3081 8.91564ZM42.6266 9.67098C42.4319 9.70281 42.1327 9.81185 41.9572 9.91491C41.7187 10.055 41.5156 10.2622 41.2873 10.5985C40.7485 11.392 40.5739 12.0106 40.5209 13.3142C40.4882 14.1178 40.5395 15.0156 40.6506 15.5842C40.7672 16.1805 41.109 16.8632 41.5339 17.3484C42.0074 17.8892 42.7658 18.1206 43.4621 17.9368C43.6319 17.8919 43.9877 17.7266 44.1554 17.6145C44.7517 17.216 45.1863 16.4921 45.3728 15.5867C45.5757 14.6017 45.5763 13.0059 45.3741 12.0106C45.2258 11.2804 44.9313 10.7211 44.4595 10.2739C44.1152 9.94736 43.7799 9.76536 43.3613 9.67771C43.2025 9.64446 42.8108 9.64088 42.6266 9.67098ZM71.4765 12.9627C70.4004 13.3477 70.1662 13.4427 69.7926 13.6465C68.8244 14.1745 68.3145 14.7183 68.1108 15.4403C68.0532 15.6442 68.0592 16.1631 68.1217 16.3918C68.3054 17.0642 68.8198 17.5399 69.563 17.7248C69.7235 17.7647 69.8076 17.7713 70.1539 17.7717C70.5 17.772 70.5891 17.7652 70.7782 17.7235C71.3354 17.6007 71.8535 17.3505 72.3373 16.9703L72.502 16.841V14.7185C72.502 13.5512 72.4996 12.5969 72.4967 12.5979C72.4938 12.5989 72.0347 12.7631 71.4765 12.9627Z" fill="#090C21"/>
</svg>

<svg xmlns="http://www.w3.org/2000/svg" width="77" height="24" fill="none"><path fill="#090C21" fill-rule="evenodd" d="M.018 5.961c0 5.912.007 6.487.074 7.13a11.8 11.8 0 0 0 3.25 7.013c2.239 2.348 5.44 3.8 8.57 3.883l.473.013v-2.895l.175.15c.421.36 1.094.821 1.656 1.135a12.9 12.9 0 0 0 5.938 1.597l.554.013.002-6.23c.003-6.185-.003-6.846-.07-7.516-.463-4.645-3.303-7.965-8.147-9.525-1.262-.407-2.7-.679-3.79-.716L8.327 0v2.896l-.154-.134C6.754 1.526 4.664.618 2.312.217 1.608.097.725.007.25.007H.018zm23.609 1.752-.243 3.91a684 684 0 0 0-.265 4.424c-.013.282-.047.715-.077.962-.058.492-.176 1.443-.195 1.584l-.013.089h1.324v-.12c0-.067.01-.723.023-1.46.023-1.33.025-1.36.286-5.664.144-2.379.265-4.328.269-4.332.003-.003 1.011 2.254 2.24 5.016l2.232 5.023h1.122l2.17-5.029c1.194-2.765 2.18-5.041 2.19-5.057.022-.035.568 8.545.614 9.647.016.402.036 1.012.044 1.354l.014.622h1.992v-.047c0-.026-.014-.165-.031-.309a80 80 0 0 1-.191-1.976c-.052-.597-.514-8.133-.565-9.212a52 52 0 0 1-.038-1.422l-.014-.91-2.019-.01-2.018 4.71-2.168 5.06-.15.348-4.483-10.118h-2.022zm31.27-2.184c-.286.034-.522.14-.667.304-.308.343-.256 1.136.09 1.395.2.15.405.202.804.202.451 0 .655-.06.853-.255.214-.21.3-.612.217-1.002-.114-.528-.528-.733-1.298-.644m-5.579.202c0 .032.02.44.043.905.024.482.042 1.15.042 1.553v.706h-1.657v.773h1.656l.007 3.697c.006 3.356.01 3.712.043 3.866.159.76.552 1.227 1.21 1.438.278.09.543.123.972.122.574 0 .902-.057 1.376-.238l.218-.084v-.555c0-.546 0-.556-.04-.52-.036.032-.042.032-.048.004-.006-.024-.043-.005-.145.073-.183.14-.373.243-.594.32a1 1 0 0 1-.416.063c-.193 0-.255-.008-.354-.047-.318-.124-.462-.334-.563-.823-.033-.159-.037-.48-.044-3.745l-.007-3.57h2.062v-.774h-2.06V5.674h-1.701zM75.424 7.49a1.14 1.14 0 0 0-.503.3 1.124 1.124 0 0 0 .303 1.815c.38.187.875.163 1.228-.06.234-.147.438-.43.501-.693a1.153 1.153 0 0 0-.743-1.339c-.18-.064-.604-.076-.786-.023m.112.191a.9.9 0 0 0-.401.246.92.92 0 0 0-.274.67c0 .454.327.837.794.929.42.083.902-.25 1.022-.704.18-.683-.483-1.348-1.14-1.14m-.229 1.57h.276v-.586h.063c.058 0 .082.028.267.293l.205.293h.299l-.037-.057-.195-.285a3 3 0 0 1-.151-.23c.174-.079.222-.115.266-.201.097-.188.035-.427-.13-.51-.071-.036-.139-.043-.473-.051l-.39-.01zm.276-.73.165-.014c.24-.021.324-.074.324-.207 0-.134-.098-.197-.332-.214l-.157-.012zm-6.736.189c-.304.022-.954.094-1.264.14l-.234.035-.006.664c-.003.365.002.664.012.664s.029-.011.043-.025c.02-.02.025-.02.025 0 0 .015.067-.008.165-.056 1.092-.539 2.09-.711 3.033-.523.767.152 1.427.573 1.697 1.082.135.255.168.394.178.766l.01.335-1.335.437c-1.412.462-1.756.59-2.385.892-1.208.58-1.841 1.126-2.151 1.859-.218.515-.262 1.198-.116 1.791a2.55 2.55 0 0 0 1.116 1.546c.499.327 1.029.48 1.743.506 1.05.036 1.813-.205 2.864-.906l.26-.174v.11c0 .168.04.453.092.645l.046.174.887.006c.488.003.888 0 .888-.005s-.048-.181-.107-.391a5 5 0 0 1-.126-.55l-.034-.252a223 223 0 0 1-.029-3.325c-.015-3.22-.015-3.242-.06-3.409a2.15 2.15 0 0 0-.587-1.002c-.598-.58-1.545-.927-2.83-1.036a21 21 0 0 0-1.795.002m-26.308.062c-1.43.125-2.537.906-3.193 2.253-.276.568-.452 1.252-.525 2.043-.028.3-.028 1.19 0 1.495.104 1.12.409 2.003.951 2.76.19.267.68.748.93.913.638.425 1.27.617 2.134.649 1.641.06 2.894-.612 3.69-1.981.59-1.014.832-2.437.676-3.98-.112-1.11-.487-2.076-1.09-2.8a4.6 4.6 0 0 0-.824-.747c-.743-.49-1.687-.697-2.749-.605m11.624.139c0 .009.036.232.079.497l.079.48.007 3.075c.01 3.527-.009 4.217-.132 5.145a10 10 0 0 0-.045.402l-.015.173h1.897l-.001-.277c0-.153-.012-.41-.024-.57-.015-.187-.028-1.858-.036-4.612l-.013-4.318-.898-.005c-.494-.003-.898.001-.898.01m3.145.006c0 .026.4 1.333.67 2.185.784 2.483 1.54 4.467 2.742 7.2l.168.38h1.48l.05-.112c.028-.062.261-.629.517-1.26.683-1.68.96-2.42 1.516-4.044.501-1.465.672-2.023 1.123-3.67.094-.345.176-.644.183-.664.01-.034-.026-.036-.584-.036h-.596l-.02.078-.11.423a59 59 0 0 1-.86 3.022c-.425 1.35-.838 2.456-1.52 4.063-.218.515-.244.566-.266.523-.08-.151-.737-1.907-1.07-2.858-.194-.552-.694-2.087-.976-2.993a98 98 0 0 1-.62-2.251c0-.004-.41-.007-.913-.007-.601 0-.914.007-.914.02m-14.681.755a2.3 2.3 0 0 0-.67.244c-.238.14-.441.347-.67.684-.538.793-.713 1.412-.766 2.715-.033.804.018 1.702.13 2.27.116.596.458 1.28.883 1.764a1.93 1.93 0 0 0 1.928.589c.17-.045.526-.21.693-.323.597-.398 1.031-1.122 1.218-2.027.203-.985.203-2.581.001-3.576-.148-.73-.443-1.29-.915-1.737-.344-.327-.68-.509-1.098-.596a2.8 2.8 0 0 0-.734-.007m28.85 3.292c-1.077.385-1.31.48-1.684.684-.969.527-1.479 1.071-1.682 1.793-.058.204-.052.723.01.952.184.672.699 1.148 1.442 1.333.16.04.245.046.59.047.347 0 .436-.007.625-.048a3.84 3.84 0 0 0 1.56-.754l.164-.129v-2.123c0-1.167-.002-2.121-.005-2.12z" clip-rule="evenodd"/></svg>
